www/source/img/svg/ei_exclamation.svg

<svg width="50" height="50" fill="none" xmlns="http://www.w3.org/2000/svg"><path d="M25 42c-9.4 0-17-7.6-17-17S15.6 8 25 8s17 7.6 17 17-7.6 17-17 17zm0-32c-8.3 0-15 6.7-15 15s6.7 15 15 15 15-6.7 15-15-6.7-15-15-15z" fill="#FF6D1C"/><path d="M24 32h2v2h-2v-2zm1.6-2h-1.2l-.4-8v-6h2v6l-.4 8z" fill="#FF6D1C"/></svg>

<svg width="50" height="50" viewBox="0 0 50 50" fill="none" xmlns="http://www.w3.org/2000/svg">
<path d="M25 42C15.6 42 8 34.4 8 25C8 15.6 15.6 8 25 8C34.4 8 42 15.6 42 25C42 34.4 34.4 42 25 42ZM25 10C16.7 10 10 16.7 10 25C10 33.3 16.7 40 25 40C33.3 40 40 33.3 40 25C40 16.7 33.3 10 25 10Z" fill="#FF6D1C"/>
<path d="M24 32H26V34H24V32Z" fill="#FF6D1C"/>
<path d="M25.6 30H24.4L24 22V16H26V22L25.6 30Z" fill="#FF6D1C"/>
</svg>
